icons/line/music-note.svg

<svg width="24" height="24" viewBox="0 0 24 24" fill="none" xmlns="http://www.w3.org/2000/svg">
<path fill-rule="evenodd" clip-rule="evenodd" d="M22 3.00001C22 2.69207 21.8581 2.40131 21.6154 2.2118C21.3727 2.0223 21.0562 1.95518 20.7575 2.02987L8.75746 5.02987C8.3123 5.14116 8 5.54114 8 6.00001V10V16.3913C7.3999 16.1365 6.7125 16 6 16C5.00168 16 4.05265 16.268 3.32398 16.7537C2.6023 17.2349 2 18.0093 2 19C2 19.9907 2.6023 20.7652 3.32398 21.2463C4.05265 21.732 5.00168 22 6 22C6.99832 22 7.94735 21.732 8.67602 21.2463C9.3977 20.7652 10 19.9907 10 19V10.7808L20 8.28079V13.3913C19.3999 13.1365 18.7125 13 18 13C17.0017 13 16.0526 13.268 15.324 13.7537C14.6023 14.2349 14 15.0093 14 16C14 16.9907 14.6023 17.7652 15.324 18.2463C16.0526 18.732 17.0017 19 18 19C18.9983 19 19.9474 18.732 20.676 18.2463C21.3977 17.7652 22 16.9907 22 16V7.00001V3.00001ZM20 16C20 15.8861 19.9307 15.6606 19.5666 15.4178C19.2095 15.1798 18.6585 15 18 15C17.3415 15 16.7905 15.1798 16.4334 15.4178C16.0693 15.6606 16 15.8861 16 16C16 16.1139 16.0693 16.3394 16.4334 16.5822C16.7905 16.8203 17.3415 17 18 17C18.6585 17 19.2095 16.8203 19.5666 16.5822C19.9307 16.3394 20 16.1139 20 16ZM8 19C8 18.8861 7.93073 18.6606 7.56662 18.4178C7.2095 18.1798 6.65854 18 6 18C5.34146 18 4.7905 18.1798 4.43338 18.4178C4.06927 18.6606 4 18.8861 4 19C4 19.1139 4.06927 19.3394 4.43338 19.5822C4.7905 19.8203 5.34146 20 6 20C6.65854 20 7.2095 19.8203 7.56662 19.5822C7.93073 19.3394 8 19.1139 8 19ZM20 6.21923L10 8.71923V6.78079L20 4.28079V6.21923Z" fill="currentColor"/>
</svg>

<svg width="24" height="24" fill="none" xmlns="http://www.w3.org/2000/svg"><path fill-rule="evenodd" clip-rule="evenodd" d="M22 3a1 1 0 00-1.242-.97l-12 3A1 1 0 008 6v10.391A5.145 5.145 0 006 16c-.998 0-1.947.268-2.676.754C2.602 17.234 2 18.009 2 19c0 .99.602 1.765 1.324 2.246C4.053 21.732 5.002 22 6 22c.998 0 1.947-.268 2.676-.754C9.398 20.766 10 19.991 10 19v-8.22l10-2.5v5.111A5.145 5.145 0 0018 13c-.998 0-1.947.268-2.676.754C14.602 14.234 14 15.009 14 16c0 .99.602 1.765 1.324 2.246.729.486 1.678.754 2.676.754.998 0 1.947-.268 2.676-.754C21.398 17.766 22 16.991 22 16V3zm-2 13c0-.114-.07-.34-.433-.582C19.209 15.18 18.658 15 18 15c-.659 0-1.21.18-1.567.418-.364.243-.433.468-.433.582 0 .114.07.34.433.582.358.238.909.418 1.567.418.659 0 1.21-.18 1.567-.418.364-.243.433-.468.433-.582zM8 19c0-.114-.07-.34-.433-.582C7.21 18.18 6.659 18 6 18c-.659 0-1.21.18-1.567.418C4.07 18.66 4 18.886 4 19c0 .114.07.34.433.582C4.79 19.82 5.341 20 6 20c.659 0 1.21-.18 1.567-.418C7.93 19.34 8 19.114 8 19zM20 6.22l-10 2.5V6.78l10-2.5v1.94z" fill="currentColor"/></svg>
